kartsymboler/golfbana.svg

<?xml version="1.0" encoding="UTF-8" standalone="no"?>
<!-- Created with Inkscape (http://www.inkscape.org/) -->

<svg
   version="1.1"
   id="svg2"
   xml:space="preserve"
   width="15.88"
   height="15.946667"
   viewBox="0 0 15.88 15.946667"
   sodipodi:docname="golfbana.svg"
   inkscape:version="1.2.2 (b0a8486541, 2022-12-01)"
   xmlns:inkscape="http://www.inkscape.org/namespaces/inkscape"
   xmlns:sodipodi="http://sodipodi.sourceforge.net/DTD/sodipodi-0.dtd"
   xmlns="http://www.w3.org/2000/svg"
   xmlns:svg="http://www.w3.org/2000/svg"><sodipodi:namedview
     id="namedview8"
     pagecolor="#ffffff"
     bordercolor="#666666"
     borderopacity="1.0"
     inkscape:pageshadow="2"
     inkscape:pageopacity="0.0"
     inkscape:pagecheckerboard="0"
     showgrid="false"
     inkscape:zoom="54.744983"
     inkscape:cx="7.4892708"
     inkscape:cy="7.9733334"
     inkscape:window-width="2560"
     inkscape:window-height="1364"
     inkscape:window-x="1920"
     inkscape:window-y="0"
     inkscape:window-maximized="1"
     inkscape:current-layer="g10"
     inkscape:showpageshadow="2"
     inkscape:deskcolor="#d1d1d1" /><defs
     id="defs6" /><g
     id="g8"
     transform="matrix(1.3333333,0,0,-1.3333333,0,15.946667)"><g
       id="g10"
       transform="scale(0.1)"><path
         id="path12"
         style="fill:#2f2f2f;fill-opacity:1.0;fill-rule:nonzero;stroke:none"
         d="M 71.718752 119.61465 L 56.440431 39.707425 L 52.646486 39.707425 L 51.225587 39.604886 L 46.713868 39.429105 L 42.29004 39.062894 L 37.983399 38.608793 L 33.85254 38.0668 L 29.794923 37.363675 L 25.825196 36.543363 L 22.148438 35.664457 L 18.706055 34.668363 L 15.483399 33.599027 L 12.495117 32.309964 L 9.8144534 31.079495 L 7.3681642 29.702542 L 5.3027345 28.266995 L 3.6035157 26.846097 L 2.1533204 25.395902 L 1.1572266 23.872464 L 0.45410157 22.261136 L 0.17578125 21.426175 L 0.087890627 20.72305 L 0 19.97598 L 0 19.360745 L 0.26367188 17.99844 L 0.90820315 16.372464 L 1.2451172 15.596097 L 1.8164063 14.849026 L 3.1494141 13.325589 L 4.8486329 11.90469 L 6.826172 10.454495 L 9.0966799 9.1068387 L 11.71875 7.7445339 L 14.575196 6.5873074 L 17.739258 5.4154323 L 21.152344 4.4193385 L 24.75586 3.4232448 L 28.637696 2.6029323 L 32.578126 1.8998072 L 36.708985 1.2699244 L 41.059571 0.81582283 L 43.286134 0.53750251 L 45.439454 0.44961189 L 49.951173 0.20058844 L 54.448244 0.11269782 L 56.528322 -0.0044896876 L 58.315431 -0.0044896876 L 60.117189 -0.0044896876 L 62.197267 0.11269782 L 66.591799 0.3763697 L 71.015627 0.65469002 L 73.242189 0.81582283 L 75.351564 1.1087916 L 79.570314 1.724026 L 81.635744 1.9876979 L 83.613283 2.4417994 L 87.480471 3.262112 L 89.370119 3.599026 L 91.157229 4.1410182 L 94.687502 5.1224636 L 96.386721 5.6791042 L 97.910159 6.3236355 L 99.433596 6.8656277 L 100.7959 7.4808621 L 102.2461 8.0228543 L 103.49121 8.7259793 L 104.76563 9.385159 L 105.9375 10.088284 L 107.00684 10.718167 L 108.00293 11.450589 L 108.91114 12.153714 L 109.70215 12.871487 L 110.52246 13.603909 L 111.15235 14.394925 L 111.78223 15.141995 L 112.22168 15.933011 L 112.96875 17.573636 L 113.21778 18.276761 L 113.30567 19.097073 L 113.42285 19.814847 L 113.30567 20.44473 L 113.21778 21.059964 L 113.042 21.792386 L 112.74903 22.583402 L 112.42676 23.403714 L 112.0459 24.121487 L 111.50391 24.9418 L 110.90332 25.644925 L 110.15625 26.465238 L 108.53028 27.915433 L 106.53809 29.365628 L 105.4834 29.995511 L 104.23828 30.698636 L 102.94922 31.31387 L 101.61621 31.97305 L 98.730471 33.218167 L 97.207034 33.76016 L 95.581057 34.302152 L 92.153323 35.386136 L 88.549807 36.279691 L 84.711916 37.187894 L 80.727541 37.905668 L 76.508791 38.433011 L 72.260744 38.975003 L 67.851564 39.341214 L 66.503908 39.429105 L 65.419924 39.516996 L 64.526369 39.604886 L 63.354494 39.604886 L 73.081057 91.899809 L 119.07715 102.06583 L 71.718752 119.61465 z M 52.470704 32.851956 L 55.166017 32.851956 L 53.378908 23.330472 L 53.291017 22.422269 L 53.554689 21.338284 L 54.169923 20.44473 L 54.990236 19.726956 L 56.07422 19.360745 L 56.982423 19.272855 L 58.051759 19.536526 L 58.959962 20.181058 L 59.677736 20.972073 L 60.043947 22.056058 L 62.109377 32.851956 L 63.01758 32.851956 L 67.23633 32.676175 L 71.293947 32.309964 L 75.351564 31.97305 L 79.204104 31.518949 L 82.89551 30.976956 L 86.411135 30.332425 L 89.633791 29.702542 L 92.695315 28.911527 L 95.507815 28.091214 L 98.027346 27.183011 L 100.25391 26.186917 L 102.17285 25.190823 L 103.78418 24.224027 L 105.01465 23.125394 L 105.9375 22.056058 L 106.46485 20.972073 L 106.53809 19.902737 L 106.53809 19.272855 L 106.21582 18.203519 L 105.4834 17.119534 L 104.39942 16.050198 L 103.05176 15.054104 L 101.25 13.97012 L 99.184573 13.076565 L 96.840823 12.065823 L 94.14551 11.245511 L 91.245119 10.454495 L 88.022463 9.7220731 L 84.711916 9.018948 L 81.02051 8.4623074 L 77.226564 7.9349636 L 73.359377 7.5687527 L 69.316408 7.2025417 L 65.1709 7.0267605 L 60.922853 6.8656277 L 56.689455 6.8656277 L 54.624025 6.8656277 L 50.405275 6.9388699 L 46.186525 7.1146511 L 42.128907 7.4076199 L 38.07129 7.7445339 L 34.218751 8.1986355 L 30.498048 8.7259793 L 26.997071 9.385159 L 23.745118 10.088284 L 20.683594 10.806057 L 17.827149 11.62637 L 15.307618 12.534573 L 13.154297 13.530667 L 11.25 14.512112 L 9.6386721 15.478909 L 8.364258 16.577542 L 7.4853517 17.661526 L 6.9140627 18.745511 L 6.826172 19.902737 L 6.826172 20.44473 L 7.2070314 21.514066 L 7.9101564 22.583402 L 8.9941408 23.667386 L 10.356446 24.780667 L 12.158203 25.747464 L 14.238282 26.728909 L 16.552735 27.637113 L 19.248047 28.530667 L 22.13379 29.248441 L 25.297852 30.068753 L 28.710938 30.698636 L 32.314454 31.240628 L 36.093751 31.78262 L 40.048829 32.134183 L 44.106446 32.515042 L 48.251954 32.778714 L 52.470704 32.851956 z " /></g></g></svg>

<?xml version="1.0" encoding="UTF-8" standalone="no"?>
<!-- Created with Inkscape (http://www.inkscape.org/) -->

<svg
   version="1.1"
   id="svg2"
   xml:space="preserve"
   width="15.88"
   height="15.946667"
   viewBox="0 0 15.88 15.946667"
   sodipodi:docname="golfbana.svg"
   inkscape:version="1.1.1 (3bf5ae0d25, 2021-09-20)"
   xmlns:inkscape="http://www.inkscape.org/namespaces/inkscape"
   xmlns:sodipodi="http://sodipodi.sourceforge.net/DTD/sodipodi-0.dtd"
   xmlns="http://www.w3.org/2000/svg"
   xmlns:svg="http://www.w3.org/2000/svg"><sodipodi:namedview
     id="namedview8"
     pagecolor="#ffffff"
     bordercolor="#666666"
     borderopacity="1.0"
     inkscape:pageshadow="2"
     inkscape:pageopacity="0.0"
     inkscape:pagecheckerboard="0"
     showgrid="false"
     inkscape:zoom="54.744983"
     inkscape:cx="7.9368003"
     inkscape:cy="7.9642001"
     inkscape:window-width="2560"
     inkscape:window-height="1365"
     inkscape:window-x="0"
     inkscape:window-y="0"
     inkscape:window-maximized="1"
     inkscape:current-layer="g10" /><defs
     id="defs6" /><g
     id="g8"
     transform="matrix(1.3333333,0,0,-1.3333333,0,15.946667)"><g
       id="g10"
       transform="scale(0.1)"><path
         d="M 71.7188,119.621 56.4414,39.707 H 52.6406 L 51.2266,39.5977 46.7148,39.4336 42.2891,39.0625 37.9844,38.6016 33.8516,38.0664 29.7891,37.3633 25.8203,36.543 22.1445,35.6641 18.7109,34.668 15.4844,33.5938 12.5,32.3047 9.80859,31.0742 7.36719,29.707 5.30469,28.2617 3.60547,26.8477 2.14844,25.3984 1.16406,23.8672 0.453125,22.2578 0.171875,21.4258 0.09375,20.7227 0,19.9805 v -0.625 L 0.257813,18 0.914063,16.3789 1.25,15.5977 1.8125,14.8516 3.14844,13.3203 4.84766,11.9023 6.83203,10.4609 9.10156,9.10156 11.7148,7.74609 14.5703,6.58203 17.7461,5.41016 21.1523,4.42578 24.75,3.42969 28.6328,2.60547 32.5742,1.90234 36.7109,1.26953 41.0547,0.820313 43.293,0.539063 45.4375,0.449219 49.9492,0.207031 54.4531,0.105469 56.5234,0 h 1.7891 1.8086 l 2.0703,0.105469 4.3945,0.265625 4.4297,0.28125 2.2266,0.167969 2.1094,0.281247 4.2187,0.625 2.0703,0.25391 1.9727,0.46094 3.8672,0.82031 1.8945,0.33984 1.7773,0.53907 3.5352,0.98828 1.6992,0.54687 1.5235,0.64063 1.5234,0.55078 1.3674,0.61328 1.445,0.53516 1.25,0.71484 1.27,0.65625 1.172,0.70308 1.074,0.625 0.996,0.7422 0.898,0.7032 0.801,0.7109 0.82,0.7305 0.625,0.7929 0.625,0.7422 0.45,0.793 0.742,1.6367 0.254,0.7149 0.078,0.8203 0.117,0.7109 -0.117,0.625 -0.078,0.6172 -0.176,0.7422 -0.293,0.7929 -0.332,0.8204 -0.371,0.7109 -0.547,0.8203 -0.606,0.7031 -0.742,0.8203 -1.621,1.4571 -1.992,1.4453 -1.055,0.625 -1.25,0.7109 -1.289,0.6133 -1.328,0.6563 -2.8905,1.25 -1.5235,0.539 -1.6211,0.5352 -3.4375,1.0859 -3.5937,0.8945 -3.8477,0.9102 -3.9843,0.7109 -4.2188,0.5391 -4.2383,0.5352 -4.4101,0.3632 -1.3555,0.0899 -1.0742,0.0859 -0.9063,0.086 h -1.1679 l 9.7343,52.3007 45.9961,10.1716 -47.3632,17.551"
         style="fill:#2f2f2f;fill-opacity:1.0;fill-rule:nonzero;stroke:none"
         id="path12" /><path
         d="m 63.0117,32.8516 4.2305,-0.1758 4.0469,-0.3711 4.0625,-0.332 3.8476,-0.4493 3.6914,-0.5468 3.5157,-0.6446 3.2226,-0.625 3.0664,-0.8007 2.8125,-0.8204 2.5195,-0.9062 2.2267,-0.9883 1.914,-0.9961 1.621,-0.9687 1.231,-1.1016 0.918,-1.0742 0.527,-1.0742 0.078,-1.0743 v -0.6367 l -0.332,-1.0625 -0.723,-1.082 -1.093,-1.0742 -1.348,-0.9961 L 101.25,13.9727 99.1797,13.0781 96.8359,12.0703 94.1406,11.25 91.25,10.4609 88.0273,9.71875 84.707,9.01563 81.0156,8.46875 77.2266,7.9375 73.3594,7.56641 69.3125,7.19922 65.1719,7.03125 60.918,6.86719 H 56.6875 54.6211 L 50.3984,6.94141 46.1836,7.10938 42.125,7.40234 38.0703,7.74609 34.2148,8.19141 30.5,8.73047 26.9922,9.38672 23.75,10.0898 l -3.0625,0.711 -2.8555,0.8203 -2.5195,0.9062 -2.1602,0.9961 -1.9023,0.9883 -1.60547,0.9649 -1.28515,1.1054 -0.87891,1.086 -0.5625,1.0742 -0.08594,1.1601 v 0.5352 l 0.3711,1.0781 0.70703,1.0742 1.07812,1.0821 1.36332,1.1015 1.8125,0.9688 2.0703,0.9844 2.3125,0.9101 2.7031,0.8985 2.8906,0.7148 3.1524,0.8164 3.4179,0.6367 3.5977,0.5391 3.7812,0.5351 3.961,0.3633 4.0586,0.3711 4.1445,0.2617 4.2188,0.0782 h 2.6875 l -1.7774,-9.5196 -0.0898,-0.9101 0.2578,-1.0821 0.6211,-0.9023 0.8164,-0.7109 1.082,-0.3711 0.9102,-0.0899 1.0703,0.2657 0.9101,0.6523 0.711,0.793 0.3711,1.0742 2.0664,10.8008 h 0.9023"
         style="fill:#ffffff;fill-opacity:1;fill-rule:nonzero;stroke:none"
         id="path14" /></g></g></svg>
